!!!COM: jennifer-lopez
!!!OTL: on-the-floor
!!!RNB: hooktheoryid: AnLgaealgYp
**kern	**text
*clefG2	*
*k[b-e-a-d-g-c-]	*
*M4/4	*
=1	=1
4.b-	Ebm
8a-	.
8g-	.
8f	.
4e-	.
=2	=2
8e-	Bmaj7
8g-	.
8f	.
8e-	.
8d-	.
8e-	.
8B-	.
8A-	.
=3	=3
8.B-	Gb
16A-	.
2B-	.
4r	.
=4	=4
1r	Bbmin7
=5	=5
4.b-	Ebm
8a-	.
8g-	.
8f	.
4e-	.
=6	=6
8e-	Bmaj7
8g-	.
8f	.
8e-	.
8d-	.
8e-	.
8B-	.
8A-	.
=7	=7
8.B-	Gb
16A-	.
2B-	.
4r	.
=8	=8
1r	Bbmin7
=9	=9
1r	Ebm
=10	=10
1r	Ebm
=11	=11
4.b-	Ebm
8a-	.
8g-	.
8f	.
4e-	.
=12	=12
8e-	Bmaj7
8g-	.
8f	.
8e-	.
8d-	.
8e-	.
8B-	.
8A-	.
=13	=13
8.B-	Gb
16A-	.
8B-	.
8e-	.
8e-	.
8e-	.
8e-	.
8e-	.
=14	=14
4e-	Bbmin7
8e-	.
8e-	.
4e-	.
4r	.
=15	=15
4.b-	Ebm
8a-	.
8g-	.
8f	.
4e-	.
=16	=16
8e-	Bmaj7
8g-	.
8f	.
8e-	.
8d-	.
8e-	.
8B-	.
8A-	.
=17	=17
8.B-	Gb
16A-	.
8B-	.
8e-	.
8e-	.
8e-	.
8e-	.
8e-	.
=18	=18
4e-	Bbmin7
8e-	.
8e-	.
4e-	.
4r	.
*-	*-